images/svg/nav/x.svg

<svg width="22" height="23" viewBox="0 0 22 23" fill="none" xmlns="http://www.w3.org/2000/svg">
<g id="Group">
<path id="Combined Shape" fill-rule="evenodd" clip-rule="evenodd" d="M10.9999 9.37887L2.16112 0.540039L0.0397949 2.66136L8.87863 11.5002L0.0397949 20.339L2.16112 22.4604L11 13.6215L19.8388 22.4603L21.9601 20.339L13.1213 11.5002L21.9601 2.66136L19.8388 0.540039L10.9999 9.37887Z" fill="#FBFCFE"/>
</g>
</svg>

<svg width="22" height="23" fill="none" xmlns="http://www.w3.org/2000/svg"><path fill-rule="evenodd" clip-rule="evenodd" d="M11 9.379 2.16.54.04 2.661l8.839 8.84-8.84 8.838 2.122 2.121L11 13.621l8.839 8.84 2.121-2.122-8.839-8.839 8.84-8.839L19.838.54l-8.84 8.839z" fill="#FBFCFE"/></svg>
